!!!OTL: WENN ICH IN FREIHEIT LEBEN WILL
!!!ARE: Europa, Mitteleuropa, Deutschland, Brandenburg
!!!SCT: E0531B
!!!YEM: Copyright 1995, estate of Helmut Schaffrath.
**kern
*ICvox
*Ivox
*M4/4
*k[b-]
*F:
{8f
8a
=1
4cc
4ff
8cc
8a
8b-
8g
=2
4f
4a
4a}
{8f
8a
=3
4cc
4ff
8cc
8a
8b-
8g
=4
2a
4r}
{8a
8a
=5
4a
4a
4g
8cc
8b-
=6
4.b-
8a
4a}
{4cc
=7
8ff
8cc
8a
8f
4cc
4e
=8
2f
4r}
==
!!!AGN: Liebes - Lied
!!!ONB: ESAC (Essen Associative Code) Database: ERK1
!!!AMT: simple quadruple
!!!AIN: vox
!!!EED: Helmut Schaffrath
!!!EEV: 1.0
*-
